public/img/assets/icons/weather-conditions/rain-snow-showers-day.svg

<svg width="120" height="120" viewBox="0 0 120 120" fill="none" xmlns="http://www.w3.org/2000/svg">
<path d="M51.4835 39C51.4835 48.1113 58.8953 55.5231 68.0066 55.5231C77.1179 55.5231 84.5297 48.1113 84.5297 39C84.5297 29.8887 77.1179 22.4769 68.0066 22.4769C58.8953 22.4769 51.4835 29.8887 51.4835 39ZM64.7 8C64.7 6.89543 65.5954 6 66.7 6H69.3C70.4046 6 71.3 6.89543 71.3 8V13.9C71.3 15.0046 70.4046 15.9 69.3 15.9H66.7C65.5954 15.9 64.7 15.0046 64.7 13.9V8ZM35 37.7C35 36.5954 35.8954 35.7 37 35.7H42.9C44.0046 35.7 44.9 36.5954 44.9 37.7V40.3C44.9 41.4046 44.0046 42.3 42.9 42.3H37C35.8954 42.3 35 41.4046 35 40.3V37.7ZM91.1 37.7C91.1 36.5954 91.9954 35.7 93.1 35.7H99C100.105 35.7 101 36.5954 101 37.7V40.3C101 41.4046 100.105 42.3 99 42.3H93.1C91.9954 42.3 91.1 41.4046 91.1 40.3V37.7ZM83.4128 21.7494C82.6318 20.9684 82.6318 19.702 83.4128 18.921L87.587 14.7468C88.368 13.9658 89.6344 13.9658 90.4154 14.7468L92.2532 16.5846C93.0342 17.3656 93.0342 18.632 92.2532 19.413L88.079 23.5872C87.298 24.3682 86.0316 24.3682 85.2506 23.5872L83.4128 21.7494ZM50.7497 23.5902C49.9686 24.3713 48.702 24.3712 47.921 23.5898L43.7499 19.4168C42.969 18.6355 42.9694 17.3691 43.7508 16.5882L45.5905 14.7498C46.3719 13.9689 47.6384 13.9695 48.4191 14.7509L52.5885 18.9243C53.3689 19.7054 53.3686 20.9713 52.5879 21.752L50.7497 23.5902Z" fill="#FDF72A"/>
<path d="M83.1875 50.6C83.0949 50.6 83.0178 50.6306 82.9406 50.6306C83.1103 49.8344 83.1875 49.0075 83.1875 48.15C83.1875 41.3819 77.6637 35.9 70.8438 35.9C67.048 35.9 63.6998 37.6303 61.4316 40.31C58.5617 34.7975 52.8373 31 46.1563 31C36.6053 31 28.875 38.6716 28.875 48.15C28.875 49.2678 28.9984 50.3397 29.199 51.3963C23.2895 53.3256 19 58.7922 19 65.3C19 73.4156 25.6348 80 33.8125 80H83.1875C91.3652 80 98 73.4156 98 65.3C98 57.1844 91.3652 50.6 83.1875 50.6Z" fill="#3FD5FE"/>
<path fill-rule="evenodd" clip-rule="evenodd" d="M68.0066 55.5231C58.8953 55.5231 51.4835 48.1113 51.4835 39C51.4835 36.641 51.9804 34.3958 52.875 32.3638C56.5692 33.9379 59.5889 36.7704 61.4317 40.31C63.6998 37.6303 67.0481 35.9 70.8438 35.9C76.9107 35.9 81.9519 40.2382 82.9912 45.9608C80.3597 51.6034 74.6326 55.5231 68.0066 55.5231Z" fill="#F7D056"/>
<rect x="40.5853" y="71" width="3.51214" height="15" rx="1" fill="#6A9CFF"/>
<rect width="3.5251" height="14.945" rx="1" transform="matrix(0.498161 -0.867085 0.86496 0.501841 35 76.2783)" fill="#6A9CFF"/>
<rect width="3.5251" height="14.945" rx="1" transform="matrix(-0.498161 -0.867085 -0.86496 0.501841 50 75.8213)" fill="#6A9CFF"/>
<rect x="68.5853" y="71" width="3.51214" height="15" rx="1" fill="#6A9CFF"/>
<rect width="3.5251" height="14.945" rx="1" transform="matrix(0.498161 -0.867085 0.86496 0.501841 63 76.2783)" fill="#6A9CFF"/>
<rect width="3.5251" height="14.945" rx="1" transform="matrix(-0.498161 -0.867085 -0.86496 0.501841 78 75.8213)" fill="#6A9CFF"/>
<rect x="54.5853" y="86" width="3.51214" height="15" rx="1" fill="#6A9CFF"/>
<rect width="3.5251" height="14.945" rx="1" transform="matrix(0.498161 -0.867085 0.86496 0.501841 49 91.2783)" fill="#6A9CFF"/>
<rect width="3.5251" height="14.945" rx="1" transform="matrix(-0.498161 -0.867085 -0.86496 0.501841 64 90.8213)" fill="#6A9CFF"/>
<path fill-rule="evenodd" clip-rule="evenodd" d="M48.5986 80.1308L45.6574 78.4327L49.1547 76.4136C49.633 76.1374 49.7969 75.5258 49.5207 75.0476L48.772 73.7508C48.4959 73.2725 47.8843 73.1086 47.406 73.3847L44.143 75.2686V72.136C44.143 71.5837 43.6952 71.136 43.143 71.136H41.6456C41.0933 71.136 40.6456 71.5837 40.6456 72.136V75.5392L37.6983 73.8376C37.2201 73.5615 36.6085 73.7253 36.3323 74.2036L35.5836 75.5004C35.3075 75.9787 35.4714 76.5903 35.9496 76.8664L38.6626 78.4327L35.7214 80.1308H48.5986Z" fill="#3377FF"/>
<path fill-rule="evenodd" clip-rule="evenodd" d="M76.5778 80.1308L73.6366 78.4327L77.1339 76.4136C77.6122 76.1374 77.7761 75.5258 77.5 75.0476L76.7513 73.7508C76.4751 73.2725 75.8635 73.1086 75.3852 73.3847L72.1222 75.2686V72.136C72.1222 71.5837 71.6745 71.136 71.1222 71.136H69.6248C69.0725 71.136 68.6248 71.5837 68.6248 72.136V75.5392L65.6776 73.8376C65.1993 73.5615 64.5877 73.7253 64.3116 74.2036L63.5629 75.5004C63.2867 75.9787 63.4506 76.5903 63.9289 76.8664L66.6418 78.4327L63.7006 80.1308H76.5778Z" fill="#3377FF"/>
<path d="M44.2308 97.6484C42.8769 102.273 40 103.522 40 106.782C40 109.667 42.274 112 45.0769 112C47.8798 112 50.1538 109.667 50.1538 106.782C50.1538 103.512 47.2769 102.293 45.9231 97.6484C45.6904 96.8048 44.4952 96.7632 44.2308 97.6484Z" fill="#6A9CFF"/>
<path d="M66.2308 97.6484C64.8769 102.273 62 103.522 62 106.782C62 109.667 64.274 112 67.0769 112C69.8798 112 72.1538 109.667 72.1538 106.782C72.1538 103.512 69.2769 102.293 67.9231 97.6484C67.6904 96.8048 66.4952 96.7632 66.2308 97.6484Z" fill="#6A9CFF"/>
</svg>

<svg xmlns="http://www.w3.org/2000/svg" fill="none" viewBox="0 0 120 120"><path d="M51.48 39a16.53 16.53 0 0 0 33.06 0c0-9.11-7.4-16.52-16.51-16.52A16.54 16.54 0 0 0 51.48 39ZM64.7 8c0-1.1.9-2 2-2h2.6a2 2 0 0 1 2 2v5.9a2 2 0 0 1-2 2h-2.6a2 2 0 0 1-2-2V8ZM35 37.7c0-1.1.9-2 2-2h5.9a2 2 0 0 1 2 2v2.6a2 2 0 0 1-2 2H37a2 2 0 0 1-2-2v-2.6Zm56.1 0c0-1.1.9-2 2-2H99a2 2 0 0 1 2 2v2.6a2 2 0 0 1-2 2h-5.9a2 2 0 0 1-2-2v-2.6Zm-7.69-15.95a2 2 0 0 1 0-2.83l4.18-4.17a2 2 0 0 1 2.83 0l1.83 1.83a2 2 0 0 1 0 2.83l-4.17 4.21a2 2 0 0 1-2.83 0l-1.84-1.84ZM50.75 23.6a2 2 0 0 1-2.83 0l-4.17-4.17a2 2 0 0 1 0-2.83l1.84-1.86a2 2 0 0 1 2.83 0l4.17 4.17a2 2 0 0 1 0 2.83l-1.84 1.84Z" fill="#FDF72A"/><path d="M83.19 50.6c-.1 0-.17.03-.25.03a12.3 12.3 0 0 0-21.5-10.32A17.2 17.2 0 0 0 46.15 31a17.2 17.2 0 0 0-17.28 17.15c0 1.12.12 2.19.32 3.25a14.66 14.66 0 0 0-10.2 13.9A14.77 14.77 0 0 0 33.8 80H83.2C91.37 80 98 73.42 98 65.3s-6.63-14.7-14.81-14.7Z" fill="#3FD5FE"/><path d="M68 55.52a16.54 16.54 0 0 1-15.13-23.16 17.34 17.34 0 0 1 8.56 7.95A12.32 12.32 0 0 1 83 45.96a16.54 16.54 0 0 1-14.98 9.56Z" fill="#F7D056" fill-rule="evenodd" clip-rule="evenodd"/><rect fill="#6A9CFF" width="3.51" height="15" x="40.59" y="71" rx="1"/><rect fill="#6A9CFF" width="3.53" height="14.95" rx="1" transform="matrix(.49816 -.86708 .86496 .50184 35 76.28)"/><rect fill="#6A9CFF" width="3.53" height="14.95" rx="1" transform="matrix(-.49816 -.86708 -.86496 .50184 50 75.82)"/><rect fill="#6A9CFF" width="3.51" height="15" x="68.59" y="71" rx="1"/><rect fill="#6A9CFF" width="3.53" height="14.95" rx="1" transform="matrix(.49816 -.86708 .86496 .50184 63 76.28)"/><rect fill="#6A9CFF" width="3.53" height="14.95" rx="1" transform="matrix(-.49816 -.86708 -.86496 .50184 78 75.82)"/><rect fill="#6A9CFF" width="3.51" height="15" x="54.59" y="86" rx="1"/><rect fill="#6A9CFF" width="3.53" height="14.95" rx="1" transform="matrix(.49816 -.86708 .86496 .50184 49 91.28)"/><rect fill="#6A9CFF" width="3.53" height="14.95" rx="1" transform="matrix(-.49816 -.86708 -.86496 .50184 64 90.82)"/><path d="m48.6 80.13-2.94-1.7 3.5-2.02a1 1 0 0 0 .36-1.36l-.75-1.3a1 1 0 0 0-1.36-.37l-3.27 1.89v-3.13a1 1 0 0 0-1-1h-1.5a1 1 0 0 0-1 1v3.4l-2.94-1.7a1 1 0 0 0-1.37.36l-.75 1.3a1 1 0 0 0 .37 1.37l2.71 1.56-2.94 1.7H48.6Zm27.98 0-2.94-1.7 3.5-2.02a1 1 0 0 0 .36-1.36l-.75-1.3a1 1 0 0 0-1.36-.37l-3.27 1.89v-3.13a1 1 0 0 0-1-1h-1.5a1 1 0 0 0-1 1v3.4l-2.94-1.7a1 1 0 0 0-1.37.36l-.75 1.3a1 1 0 0 0 .37 1.37l2.71 1.56-2.94 1.7h12.88Z" fill="#37F" fill-rule="evenodd" clip-rule="evenodd"/><path d="M44.23 97.65c-1.35 4.62-4.23 5.87-4.23 9.13a5.15 5.15 0 0 0 5.08 5.22c2.8 0 5.07-2.33 5.07-5.22 0-3.27-2.87-4.49-4.23-9.13a.88.88 0 0 0-1.69 0Zm22 0c-1.35 4.62-4.23 5.87-4.23 9.13a5.15 5.15 0 0 0 5.08 5.22c2.8 0 5.07-2.33 5.07-5.22 0-3.27-2.87-4.49-4.23-9.13a.88.88 0 0 0-1.7 0Z" fill="#6A9CFF"/></svg>
